X:33
T:Go To The Devil And Shake Yourself. WM.033
M:6/8
L:1/8
Q:3/8=120
S:Wm.Mittell’s MS, New Romney,Kent,1799
R:.Jig
O:England
A:Kent
Z:vmp.Chris Partington
K:D
A2d dcB|ABA AFA|Add d2e|fdBB2A|!
A2d dcB|ABA AFA|dfd|ege|fddd3:|!
|:afd dcd|BGGG3|bge efd|cAAA3|!
Add dcB|ABA AFA|dfd ege|fddd3:|

